X:1
T:[ID 4-3v]
T:[ID 4-3v]
T:Bezeichnung standardisiert: Hopser Hopser
T:Urheber unbekannt Datum in der hier transkribierten schriftlichen Quelle: 1767
C:Urheber unbekannt
C:Datum in der hier transkribierten schriftlichen Quelle: 1767
L:1/8
M:3/8
K:G
V:1 treble 
V:1
 B2 c | d2 d | efg | d2 c | B2 c | ded | cBA | G2 G :: AFA | d2 f | ede | dfa | AFA | d2 f | efe | %15
 d3 :: cdc | BcB | ABA | GFG | AFA | BGB | ABA | G3 :| %24

